X:32
T:Lads and Lasses. TJD.32
M:2/2
L:1/8
Q:1/4=120
S:T.J.Dixon MS1, Lincolnshire, 1798
R:reel
A:Lincolnshire, Holton le Moor
Z:vmp.R.Greig2010
K:G
“^quaver in MS”g2|dBAG FAAc|BGBdg2fe|dBAG FAAc|BGAFG2:|!
|:z2|g2g/a/b agfe|g2g/a/ba2d2|g2ab agfe|(e/f/g) f/g/ag2:|

